svgs/thin/hospital.svg

<svg xmlns="http://www.w3.org/2000/svg" viewBox="0 0 640 512"><!--! Font Awesome Pro 6.4.2 by @fontawesome - https://fontawesome.com License - https://fontawesome.com/license (Commercial License) Copyright 2023 Fonticons, Inc. --><path d="M160 64c0-35.3 28.7-64 64-64H416c35.3 0 64 28.7 64 64V96H584c30.9 0 56 25.1 56 56V456c0 30.9-25.1 56-56 56H416v0H384h-8H264h-8H224v0H56c-30.9 0-56-25.1-56-56V152c0-30.9 25.1-56 56-56H160V64zm304 0c0-26.5-21.5-48-48-48H224c-26.5 0-48 21.5-48 48V96v16V496h80V416c0-35.3 28.7-64 64-64s64 28.7 64 64v80h80V336 112 96 64zm120 48H480V336 496H584c22.1 0 40-17.9 40-40V304H520c-4.4 0-8-3.6-8-8s3.6-8 8-8H624V208H520c-4.4 0-8-3.6-8-8s3.6-8 8-8H624V152c0-22.1-17.9-40-40-40zm-424 0H56c-22.1 0-40 17.9-40 40v40H120c4.4 0 8 3.6 8 8s-3.6 8-8 8H16v80H120c4.4 0 8 3.6 8 8s-3.6 8-8 8H16V456c0 22.1 17.9 40 40 40H160V112zM368 416c0-26.5-21.5-48-48-48s-48 21.5-48 48v80h96V416zM312 56h16c13.3 0 24 10.7 24 24V96h16c13.3 0 24 10.7 24 24v16c0 13.3-10.7 24-24 24H352v16c0 13.3-10.7 24-24 24H312c-13.3 0-24-10.7-24-24V160H272c-13.3 0-24-10.7-24-24V120c0-13.3 10.7-24 24-24h16V80c0-13.3 10.7-24 24-24zm-8 24v24c0 4.4-3.6 8-8 8H272c-4.4 0-8 3.6-8 8v16c0 4.4 3.6 8 8 8h24c4.4 0 8 3.6 8 8v24c0 4.4 3.6 8 8 8h16c4.4 0 8-3.6 8-8V152c0-4.4 3.6-8 8-8h24c4.4 0 8-3.6 8-8V120c0-4.4-3.6-8-8-8H344c-4.4 0-8-3.6-8-8V80c0-4.4-3.6-8-8-8H312c-4.4 0-8 3.6-8 8z"/></svg>

<svg xmlns="http://www.w3.org/2000/svg" viewBox="0 0 640 512"><!--! Font Awesome Pro 6.1.1 by @fontawesome - https://fontawesome.com License - https://fontawesome.com/license (Commercial License) Copyright 2022 Fonticons, Inc. --><path d="M328 56C341.3 56 352 66.75 352 80V96H368C381.3 96 392 106.7 392 120V136C392 149.3 381.3 160 368 160H352V176C352 189.3 341.3 200 328 200H312C298.7 200 288 189.3 288 176V160H272C258.7 160 248 149.3 248 136V120C248 106.7 258.7 96 272 96H288V80C288 66.75 298.7 56 312 56H328zM304 112H272C267.6 112 264 115.6 264 120V136C264 140.4 267.6 144 272 144H304V176C304 180.4 307.6 184 312 184H328C332.4 184 336 180.4 336 176V144H368C372.4 144 376 140.4 376 136V120C376 115.6 372.4 112 368 112H336V80C336 75.58 332.4 72 328 72H312C307.6 72 304 75.58 304 80V112zM160 64C160 28.65 188.7 0 224 0H416C451.3 0 480 28.65 480 64V96H584C614.9 96 640 121.1 640 152V456C640 486.9 614.9 512 584 512H56C25.07 512 0 486.9 0 456V152C0 121.1 25.07 96 56 96H160V64zM416 16H224C197.5 16 176 37.49 176 64V496H256V416C256 380.7 284.7 352 320 352C355.3 352 384 380.7 384 416V496H464V64C464 37.49 442.5 16 416 16zM584 112H480V496H584C606.1 496 624 478.1 624 456V304H520C515.6 304 512 300.4 512 296C512 291.6 515.6 288 520 288H624V208H520C515.6 208 512 204.4 512 200C512 195.6 515.6 192 520 192H624V152C624 129.9 606.1 112 584 112zM160 112H56C33.91 112 16 129.9 16 152V192H120C124.4 192 128 195.6 128 200C128 204.4 124.4 208 120 208H16V288H120C124.4 288 128 291.6 128 296C128 300.4 124.4 304 120 304H16V456C16 478.1 33.91 496 56 496H160V112zM320 368C293.5 368 272 389.5 272 416V496H368V416C368 389.5 346.5 368 320 368z"/></svg>
